X:55
M:C|
L:1/8
Q:1/2=80
K:F
gabg a2 f2::f3 A AG G2|g3 B BA A2|
c2 cc c3 B|GABG A2F2::DFAd d2^c2|A^ceg g2f2|afed bgfe|d2^c2 d3 z:|
|:f3 c c2 BA|GABc B2A2|c2c2c2 dc|cBAG A2G2|\
c2c2c2 de|f2f2 f4|fedc BAGF|A2G2F4:|

